X: 12
T: Rural Felicity
C: J-5
M: 6/8
Z: Transcribed to abc by Mary Lou Knack
R: jig
K: D
(3A/B/c/| "D"d2d- ded| "C"=c2E- EFG| "A"A2A- ABA| "D"F2D- DFA|
          "D"d2d- ded| "C"=c2E- EFG| "A"ABA GFE| "D"D3- D2 :|
\
z|: "D"f2d- d2d-| d2f agf| "G"e2d c2d| "A"e2f gfe|
    "D"f2d- d2d-| d2f agf| "A"ecA ABc| "D"d6 :|
%%text 9/1/98
% ---------- page 7 ----------
